X:985
T:Bag of Potatoes, The
T:Little Bag of Spuds, The
R:reel
Z:id:hn-reel-275
M:C|
K:G
Bd~d2 ceed|BddB ABGA|Bd~d2 ceed|gabg (3aba g2:|
|:gabg eaaf|gabg (3efe de|gabg eaaf|gedB (3ABA G2:|
